X:32
T:Firetur fr Kallehave
S:Hans Ole
R:Other
O:Denmark
M:6/8
K:G
GFG D3 | BAB G3 | ABA ABA \
|1 FDF A3 :|2 FDF G3 ::\
dBd cAc | BDB A3 | GAB dcB | ABA G3 ::\
F2G A2B | c2d e2d | e2d e2d | cBA G3 ::\
DDD BBB | DDD ccc | DED DED | DEF G3 :|**
